X: 2323
T: the Weapon Shaw.   a Reel.
%R: reel
B: Niel Gow & Sons "Complete Repository" v.2 p.32 #3
Z: 2021 John Chambers <jc:trillian.mit.edu>
M: C
L: 1/8
K: Dm
% - - - - - - - - - -
V: 1 staves=2
|:\
(DEF).D F3c | GFTED CDEC | D>EFD F2Fc | (d/c/=B/A/) cE D/D/D D2 :| d>edA d/d/d Tf2 | g>fed cdec |
d>edA d/d/d Tf2 | ed^ce d2D2 || d>edA d/d/d Tf2 | g>fed cdec | decd AcFA | G<Ec>E D/D/D D2 |]
% - - - - - - - - - -
% Voice 2 preserves the staff layout in the book.
V: 2 clef=bass middle=D
|:\
D2D2 D2D2 | C2C2 C2C2 | D2D2 D2D2 | G,2A,2 D2D,2 :| d2d2 d2d2 | c2c2 c2c2 |
d2d2 d2d2 | A2A2 D2D2 || d2d2 d2d2 | c2c2 C2C2 | D2E2 F2F2 | G2A2 D2D2 |]
